icons/thumbsup-24.svg

<svg width="24" height="24" viewBox="0 0 24 24" xmlns="http://www.w3.org/2000/svg">
  <path fill-rule="evenodd" clip-rule="evenodd" d="M12.5964 2.0431C11.2946 1.95101 10.2931 3.02871 10.2931 4.24933L10.2931 5.30181C10.2931 7.96849 8.48031 9.08694 7.51866 9.50139C7.3646 9.56779 7.19129 9.60994 6.99615 9.63302C6.93593 8.72109 6.17717 8.00006 5.25 8.00006H3.75C2.7835 8.00006 2 8.78356 2 9.75006V20.2501C2 21.2166 2.7835 22.0001 3.75 22.0001H5.25C6.15903 22.0001 6.90618 21.307 6.99181 20.4204C7.83027 20.4808 8.65913 20.7158 9.6829 21.006C9.87595 21.0608 10.0759 21.1175 10.2842 21.1753C11.7485 21.5821 13.4975 22.0001 15.8276 22.0001C18.0161 22.0001 19.5214 21.796 20.4112 20.6281C20.8332 20.0742 21.0603 19.3728 21.2266 18.5778C21.3746 17.8702 21.4889 17.0076 21.6227 15.9978L21.6745 15.6078C21.9926 13.2222 22.0022 11.4278 21.4506 10.2145C21.1576 9.57011 20.7077 9.08869 20.0963 8.78267C19.5051 8.48676 18.8123 8.3794 18.0604 8.3794H16.0095C16.0268 8.2435 16.0461 8.10029 16.0662 7.95021C16.0906 7.76915 16.1163 7.57783 16.1415 7.37758C16.2023 6.8951 16.2586 6.37209 16.2586 5.93974C16.2586 4.69536 16.0371 3.68709 15.3387 2.99861C14.6546 2.32419 13.6709 2.1191 12.5964 2.0431ZM7 18.9182C8.05887 18.9821 9.07873 19.2731 10.1178 19.5695C10.3063 19.6232 10.4955 19.6772 10.6857 19.73C12.092 20.1207 13.6922 20.5001 15.8276 20.5001C18.1046 20.5001 18.8321 20.2257 19.2181 19.719C19.434 19.4356 19.6056 19.0008 19.7583 18.2707C19.8941 17.6218 20.0004 16.8202 20.1365 15.7944L20.1876 15.4096C20.5075 13.0107 20.4397 11.6154 20.085 10.8353C19.9248 10.4829 19.7096 10.2666 19.4249 10.124C19.1199 9.97139 18.6855 9.8794 18.0604 9.8794H15.6896C15.0085 9.8794 14.3969 9.30867 14.4786 8.55087C14.5048 8.30752 14.5441 8.0143 14.584 7.71725C14.6078 7.53964 14.6318 7.36047 14.6533 7.18996C14.714 6.70838 14.7586 6.2685 14.7586 5.93974C14.7586 4.81512 14.5458 4.32326 14.2856 4.06681C14.0112 3.79629 13.5124 3.61163 12.4906 3.53936C12.1398 3.51455 11.7931 3.81319 11.7931 4.24935L11.7931 5.30182C11.7931 8.85134 9.30493 10.3649 8.11234 10.8789C7.74059 11.0391 7.35937 11.1113 7 11.1396V18.9182ZM3.75 20.5001C3.61193 20.5001 3.5 20.3881 3.5 20.2501V9.75006C3.5 9.61199 3.61193 9.50006 3.75 9.50006H5.25C5.38807 9.50006 5.5 9.61199 5.5 9.75006V20.2501C5.5 20.3881 5.38807 20.5001 5.25 20.5001H3.75Z"/>
</svg>

<svg xmlns="http://www.w3.org/2000/svg" width="24" height="24" viewBox="0 0 24 24"><path fill-rule="evenodd" d="M12.596 2.043c-1.301-.092-2.303.986-2.303 2.206v1.053c0 2.666-1.813 3.785-2.774 4.2a1.866 1.866 0 01-.523.131A1.75 1.75 0 005.25 8h-1.5A1.75 1.75 0 002 9.75v10.5c0 .967.784 1.75 1.75 1.75h1.5a1.75 1.75 0 001.742-1.58c.838.06 1.667.296 2.69.586l.602.17c1.464.406 3.213.824 5.544.824 2.188 0 3.693-.204 4.583-1.372.422-.554.65-1.255.816-2.05.148-.708.262-1.57.396-2.58l.051-.39c.319-2.386.328-4.18-.223-5.394-.293-.644-.743-1.125-1.355-1.431-.59-.296-1.284-.404-2.036-.404h-2.05l.056-.429c.025-.18.05-.372.076-.572.06-.483.117-1.006.117-1.438 0-1.245-.222-2.253-.92-2.941-.684-.675-1.668-.88-2.743-.956zM7 18.918c1.059.064 2.079.355 3.118.652l.568.16c1.406.39 3.006.77 5.142.77 2.277 0 3.004-.274 3.39-.781.216-.283.388-.718.54-1.448.136-.65.242-1.45.379-2.477l.05-.384c.32-2.4.253-3.795-.102-4.575-.16-.352-.375-.568-.66-.711-.305-.153-.74-.245-1.365-.245h-2.37c-.681 0-1.293-.57-1.211-1.328.026-.243.065-.537.105-.834l.07-.527c.06-.482.105-.921.105-1.25 0-1.125-.213-1.617-.473-1.873-.275-.27-.774-.455-1.795-.528-.351-.024-.698.274-.698.71v1.053c0 3.55-2.488 5.063-3.68 5.577-.372.16-.754.232-1.113.26v7.78zM3.75 20.5a.25.25 0 01-.25-.25V9.75a.25.25 0 01.25-.25h1.5a.25.25 0 01.25.25v10.5a.25.25 0 01-.25.25h-1.5z"/></svg>
